svgs/duotone/burst.svg

<svg xmlns="http://www.w3.org/2000/svg" viewBox="0 0 512 512"><!--! Font Awesome Pro 6.3.0 by @fontawesome - https://fontawesome.com License - https://fontawesome.com/license (Commercial License) Copyright 2023 Fonticons, Inc. --><defs><style>.fa-secondary{opacity:.4}</style></defs><path class="fa-primary" d="M255.1 96L285.1 185.8L349.8 162.2L326.2 226.9L416 256L326.2 285.1L371.9 371.9L285.1 326.2L256 416L226.9 326.2L140.1 371.9L185.8 285.1L96 256L185.8 226.9L96 96L226.9 185.8L255.1 96z"/><path class="fa-secondary" d="M7.03 7.03C15.2-1.144 28.04-2.33 37.57 4.208L200.9 116.2L233.2 16.6C236.4 6.705 245.6 .0004 256 .0004C266.4 .0004 275.6 6.705 278.8 16.6L313.3 123.1L383.8 97.45C392.6 94.26 402.4 96.43 408.1 103C415.6 109.6 417.7 119.4 414.6 128.2L388.9 198.7L495.4 233.2C505.3 236.4 512 245.6 512 255.1C512 266.4 505.3 275.6 495.4 278.8L392.3 312.2L445.2 412.8C450.1 422.1 448.4 433.5 440.1 440.1C433.5 448.4 422.1 450.1 412.8 445.2L312.2 392.3L278.8 495.4C275.6 505.3 266.4 512 256 512C245.6 512 236.4 505.3 233.2 495.4L199.8 392.3L99.17 445.2C89.87 450.1 78.46 448.4 71.03 440.1C63.6 433.5 61.87 422.1 66.76 412.8L119.7 312.2L16.6 278.8C6.705 275.6 .0003 266.4 .0003 255.1C.0003 245.6 6.705 236.4 16.6 233.2L116.2 200.9L4.208 37.57C-2.33 28.04-1.143 15.2 7.03 7.029L7.03 7.03zM285.1 185.8L256 96L226.9 185.8L96 96L185.8 226.9L96 256L185.8 285.1L140.1 371.9L226.9 326.2L256 416L285.1 326.2L371.9 371.9L326.2 285.1L416 256L326.2 226.9L349.8 162.2L285.1 185.8z"/></svg>

<svg xmlns="http://www.w3.org/2000/svg" viewBox="0 0 512 512"><!--! Font Awesome Pro 6.4.0 by @fontawesome - https://fontawesome.com License - https://fontawesome.com/license (Commercial License) Copyright 2023 Fonticons, Inc. --><defs><style>.fa-secondary{opacity:.4}</style></defs><path class="fa-primary" d="M256 96l29.1 89.8 64.7-23.6-23.6 64.7L416 256l-89.8 29.1 45.6 86.8-86.8-45.6L256 416l-29.1-89.8-86.8 45.6 45.6-86.8L96 256l89.8-29.1L96 96l130.9 89.8L256 96z"/><path class="fa-secondary" d="M7 7c8.2-8.2 21-9.4 30.5-2.8l163.3 112 32.3-99.6C236.4 6.7 245.6 0 256 0s19.6 6.7 22.8 16.6l34.5 106.5 70.4-25.7c8.8-3.2 18.6-1 25.2 5.6s8.8 16.4 5.6 25.2l-25.7 70.4 106.5 34.5c9.9 3.2 16.6 12.4 16.6 22.8s-6.7 19.6-16.6 22.8L392.3 312.2l52.9 100.6c4.9 9.3 3.2 20.7-4.3 28.1s-18.8 9.2-28.1 4.3L312.2 392.3 278.8 495.4c-3.2 9.9-12.4 16.6-22.8 16.6s-19.6-6.7-22.8-16.6L199.8 392.3 99.2 445.2c-9.3 4.9-20.7 3.2-28.1-4.3s-9.2-18.8-4.3-28.1l52.9-100.6L16.6 278.8C6.7 275.6 0 266.4 0 256s6.7-19.6 16.6-22.8l99.6-32.3L4.2 37.6C-2.3 28-1.1 15.2 7 7zM285.1 185.8L256 96l-29.1 89.8L96 96l89.8 130.9L96 256l89.8 29.1-45.6 86.8 86.8-45.6L256 416l29.1-89.8 86.8 45.6-45.6-86.8L416 256l-89.8-29.1 23.6-64.7-64.7 23.6z"/></svg>
